X:0
T:Saw you my Love Migey Linken over the Lee
S:James Thomson's MS for the treble recorder, 1702
B:David Johnson, 21 Scots Tunes for the Treble Recorder
N:extensive ornamentation omitted, see Johnson's edition
M:3/4
L:1/8
Q:1/4=72
K:AMin
% dorian/minor/phrygian pentatonic
a>c'ag    ed/c/|g>age    dc       |a>c'ag     ed/c/   |d/c/d/e/ g/e/d/c/ A2||
Ac  cc/d/ ed/c/|Ad de/g/ a/g/a/c'/|Ac  cc'/a/ g/e/d/c/|d/c/d/e/ g/e/d/c/ A2|]
